public/icons/home.svg

<svg width="40" height="32" viewBox="0 0 40 32" fill="none" xmlns="http://www.w3.org/2000/svg">
<path d="M34.2908 18.3208V30.2206C34.2908 30.6503 34.1337 31.0222 33.8194 31.3362C33.5052 31.6502 33.133 31.8072 32.703 31.8072H23.1757V22.2874H16.8243V31.8072H7.29704C6.86699 31.8072 6.49483 31.6502 6.18057 31.3362C5.8663 31.0222 5.70917 30.6503 5.70917 30.2206V18.3208C5.70917 18.3042 5.7133 18.2794 5.72157 18.2464C5.72984 18.2133 5.73398 18.1885 5.73398 18.172L20 6.42094L34.266 18.172C34.2826 18.2051 34.2908 18.2547 34.2908 18.3208ZM39.8236 16.6102L38.2853 18.4447C38.153 18.5935 37.9793 18.6844 37.7643 18.7174H37.6899C37.4748 18.7174 37.3012 18.6596 37.1688 18.5439L20 4.23931L2.83115 18.5439C2.63267 18.6761 2.43418 18.734 2.2357 18.7174C2.02068 18.6844 1.847 18.5935 1.71468 18.4447L0.17643 16.6102C0.0441075 16.4449 -0.0137836 16.2507 0.00275672 16.0276C0.019297 15.8044 0.110269 15.6268 0.275672 15.4946L18.1144 0.644574C18.6437 0.214858 19.2722 0 20 0C20.7278 0 21.3563 0.214858 21.8856 0.644574L27.9394 5.702V0.867695C27.9394 0.63631 28.0138 0.446243 28.1626 0.297496C28.3115 0.148748 28.5017 0.0743739 28.7333 0.0743739H33.4969C33.7285 0.0743739 33.9187 0.148748 34.0675 0.297496C34.2164 0.446243 34.2908 0.63631 34.2908 0.867695V10.9825L39.7243 15.4946C39.8897 15.6268 39.9807 15.8044 39.9972 16.0276C40.0138 16.2507 39.9559 16.4449 39.8236 16.6102Z" fill="white"/>
</svg>

<svg xmlns="http://www.w3.org/2000/svg" width="40" height="32" fill="none"><path fill="#fff" d="M34.29 18.32v11.9c0 .43-.156.802-.47 1.116a1.526 1.526 0 0 1-1.117.471h-9.527v-9.52h-6.352v9.52H7.297c-.43 0-.802-.157-1.116-.47a1.524 1.524 0 0 1-.472-1.116v-11.9c0-.017.004-.042.013-.075a.34.34 0 0 0 .012-.074L20 6.421l14.266 11.751a.345.345 0 0 1 .025.149Zm5.534-1.71-1.539 1.835a.844.844 0 0 1-.52.272h-.075a.763.763 0 0 1-.521-.173L20 4.239 2.831 18.544a.922.922 0 0 1-.595.173.844.844 0 0 1-.521-.272L.176 16.61a.804.804 0 0 1-.173-.582.72.72 0 0 1 .273-.533L18.114.645C18.644.215 19.272 0 20 0s1.356.215 1.886.645l6.053 5.057V.868c0-.232.075-.422.224-.57a.773.773 0 0 1 .57-.224h4.764c.231 0 .422.075.57.223a.772.772 0 0 1 .224.57v10.116l5.433 4.512a.72.72 0 0 1 .273.533.803.803 0 0 1-.173.582Z"/></svg>
